X:1
T:Title
%%score ( 1 2 ) { 3 | 4 }
L:1/8
Q:1/4=100
M:4/4
K:Bb
V:1 treble nm="Grand Piano, Soprano"
V:2 treble 
V:3 bass nm="Choir Pad, The Holy Bible"
V:4 bass 
V:1
 [B,D]>[CE] [DF]2 [DF]2 [DF]2 | [DB]>[DF] [FA]2 [EG]2 [EG]2 | [GB]>[EG] [DF]2 [DF]2 [FB]2 | %3
w: By~Thomas~Miles~Bowdish * * * *|||
 [Fc]>[Fd] [Fe]2 [Fd]2 [Fc]2 | [B,D]>[CE] [DF]2 [DF]2 [DF]2 | [DB]>[DF] [FA]2 [EG]2 [EG]2 | %6
w: |||
 [GB]>[EG] [DF]2 [DF]>[DF] [DB]2 | A-[EA] [DB]6 | [Fd]>[Ec] [DB]6 | [FA]>[EG] [DF]6 | %10
w: ||||
 [FB]>[Fc] [Fd]2 [FB]2 [FA]2 | [FB]2 [Fc]6 | [FB]>[Fc] [Fd]2 [DB]2 [DF]2 | %13
w: |||
 [DB]>[DF] [FA]2 [EG]2 [EG]2 | [GB]>[EG] [DF]2 [DF]>[DF] [DB]2 | A-[EA] [DB]6- | [DB]2 z2 z4 |] %17
w: ||||
V:2
 x8 | x8 | x8 | x8 | x8 | x8 | x8 | .C2 z2 z4 | x8 | x8 | x8 | x8 | x8 | x8 | x8 | .C2 z2 z4 | %16
 x8 |] %17
V:3
 F,>F, B,2 B,2 B,2 | F,>B, B,2 B,2 B,2 | B,>B, B,2 B,2 B,2 | A,>B, C2 B,2 A,2 | F,>F, B,2 B,2 B,2 | %5
 F,>B, B,2 B,2 B,2 | B,>B, B,2 B,>B, F,2 | F,2 F,6 | z4 F,>F, F,2 | z4 B,>B, B,2 | %10
 B,>A, B,2 B,2 C2 | D2 A,6 | B,>A, B,2 F,2 B,2 | F,>B, B,2 B,2 B,2 | B,>B, B,2 B,>B, F,2 | %15
 F,2 F,6- | F,2 z2 z4 |] %17
V:4
 B,,>B,, B,,2 B,,2 B,,2 | B,,>B,, E,2 E,2 E,2 | E,>E, B,,2 B,,2 D,2 | F,2 A,2 z2 F,2 | %4
 D,>C, B,,2 B,,2 B,,2 | B,,>B,, E,2 E,2 E,2 | E,>E, F,2 F,>F, z2 | z2 B,,6 | z4 B,,>B,, B,,2 | %9
 z4 B,,>B,, B,,2 | D,>F, z2 D,2 C,2 | B,,2 F,6 | D,>C, B,,2 B,,2 B,,2 | B,,>B,, E,2 E,2 E,2 | %14
 E,>E, F,2 F,>F, z2 | z2 B,,6- | B,,2 z2 z4 |] %17

